X: 270
T: Huolang duishi
L: 1/16
M: 2/4
K: C
e2 e B e2 e B [I:setbarnb 1]| 
e d e e c2 B A | 
B2 e2 e e2 B | 
A2 c GE4 | 
e2 e e c2 B A | 
G2 A GE4 | 
e2 e B e2 e B | 
A G A G E2 E E | 
e2 e B e2 e B | 
A G A cE4 | 
e2 e B e2 e B | 
e2 e e c2 B A | 
A2 e2 e2 e B | 
A2 c GE4 | 
e2 e B e2 e B | 
e2 e e c2 B A | 
A2 e2 e2 e B | 
A2 c G E2 E E | 
A2 B A G2 G E | 
A2 B A G2 G E | 
e2 e e A2 B A | 
G8 |]

@@@ Tune index: 9144
